svg/u1F316.svg

<svg viewBox="0 0 2600 2760.837" xmlns="http://www.w3.org/2000/svg"><path d="M1790.5 580.5q228.5 131.5 360 360t131.5 490.5q0 263-132 491t-360 359-490 131q-263 0-490.5-131.5t-359-359-131.5-490.5q0-261 130.5-488.5t358.5-360.5 492-133q262 0 490.5 131.5z m-485.5 1713.5q252-100 410.5-336t158.5-527q0-290-157.5-526t-411.5-338q-234 0-435 115t-317 315.5-116 433.5 115 431.5 314.5 315 433.5 116.5h5z"/></svg>

<svg viewBox="0 0 2600 2760.837" xmlns="http://www.w3.org/2000/svg"><path d="M1790.5 580.5q228.5 131.5 360 360T2282 1431q0 263-132 491t-360 359-490 131q-263 0-490.5-131.5t-359-359T319 1431q0-261 130.5-488.5T808 582t492-133q262 0 490.5 131.5zM1305 2294q252-100 410.5-336t158.5-527q0-290-157.5-526T1305 567q-234 0-435 115T553 997.5 437 1431t115 431.5 314.5 315T1300 2294h5z"/></svg>
